X:1
T:On Which Side Will You Be Found?
T:Charles King Langley, Sr.
T:On Which Side Will You Be Found?
T:Public Domain
T:Public Domain
T:Public Domain
C:Charles King Langley, Sr.
Z:Public Domain
%%score ( 1 2 ) ( 3 4 )
L:1/8
M:4/4
K:C
V:1 treble 
V:2 treble 
V:3 bass 
V:4 bass 
V:1
 [CE][DF] | [EG][DG][CG][FG] [EG]2 [Gc][Gd] | [Ge][Ge] [Ge]>[Fd] [Ec]2 G[Ec] | %3
w: 1.~When the|pen- du- lum of time shall for-|ev- er cease to swing, And Je-|
w: 2.~When the|Book is o- pened there in the|pre- sence of the King, And the|
w: 3.~There the|se- crets of the heart, good or|e- vil tho’ they be, He the|
 [DB][DA][Dc][DB] [Dd][DA] [Dc]>[D^F] | (D2 B,2 B,2) [CE][DF] | [EG][DG][CG][FG] [EG]2 [Gc][Gd] | %6
w: vah’s trump o’er all the earth shall sound;|When * * the na-|all shall rise, march- ing forth in|
w: lions crowd the judg- ment bar a- round;|When * * the hosts|great and small, o- ver there be-|
w: eous Judge will her- ald far and near;|When * * the na-|He di- vides, as the shep- herd|
 [Ge][Ge][^Ge][Gd] [Ac]2 [Ac][FA] | GG[Ge][Ge] [Fd][Fd] [FB]>[FB] | [Ec]6 ||"^Refrain" [EG][Gc] | %10
w: sol- emn tread, Tell, oh, tell me,|on which side will you be found? On|side,|on the|
w: fore Him stand, With the just up-|on the right will you be found? *|||
w: doth his sheep, Tell, oh, tell me,|on which side will you ap- pear? *|||
!>(! [Fc]2!>)! [FB]4 [FA][FB] |!>(! [FA]2!>)! [EG]4 [EG][Gc] | [GB][GB][Gd][Gd] [^Fd][Fc][FB][FA] | %13
w: Lord’s side, I will|an- swer when Je-|ho- vah’s trump shall sound; On the Lord’s|
w: |||
w: |||
 (G2 D2 D2) G[Gc] |!<(! [Fc]2!<)! [FB]4 [FA][FA] |!>(! [FA]2!>)! [EG]4 [EG][Ge] | %16
w: side, * * on the|Safe- ly ga- thered|with the faith- ful|
w: |||
w: |||
 [Fd][Fc][FB][FA] [EG][EG] [FA]>[FB] | (z2 ED C2) |] %18
w: I’ll be found. * * * * *||
w: ||
w: ||
V:2
 x2 | x8 | x6 G x | x8 | G6 x2 | x8 | x8 | GG x6 | x6 || x2 | x8 | x8 | x8 | G6 G x | x8 | x8 | %16
w: ||ho-||tions|||the Lord’s||||||Lord’s side,|||
w: ||mil-||of||||||||||||
w: ||right-||tions||||||||||||
 x8 | [Ec]6 |] %18
w: ||
w: ||
w: ||
V:3
 [C,G,][C,G,] | [C,C][F,B,][E,C][D,B,] [C,C]2 [E,C][G,B,] | CC [G,B,]>[G,B,] [A,C]2 [E,C][C,G,] | %3
w: ~ ~|~ ~ ~ ~ ~ ~ ~|~ ~ ~ ~ ~ ~ ~|
 [D,G,][D,^F,][D,A,][D,G,] [D,F,][D,F,] [D,A,]>[D,C] | ([G,B,]2 G,2 G,2) [C,G,][C,G,] | %5
w: ~ ~ ~ ~ ~ ~ ~ ~|~ * * ~ ~|
 [C,C][F,B,][E,C][D,B,] [C,C]2 [E,C][G,B,] | CC[B,D][B,D] [A,E]2 [F,F][F,C] | %7
w: ~ ~ ~ ~ ~ ~ ~|~ ~ ~ ~ ~ ~ ~|
 [E,C][E,C][C,C][C,C] [F,A,][F,A,] G,>G, | G,6 || [C,C][C,E] |!>(! [D,D]2!>)! [G,D]4 [G,D][G,D] | %11
w: ~ ~ ~ ~ ~ ~ ~ ~|~|~ ~|~ ~ ~ ~|
!>(! [C,D]2!>)! [C,C]4 [C,C][C,E] | [D,D][D,D][D,B,][D,B,] [D,A,][D,A,][D,D][D,C] | %13
w: ~ ~ ~ ~|~ shall sound * * * * *|
 [G,B,]2 [G,B,]2 [G,B,]2 [E,C][C,E] |!<(! [D,D]2!<)! [G,D]4 [G,D][G,D] | %15
w: ||
!>(! [C,C]2!>)! [C,C]4 [C,C][C,C] | [F,A,][F,A,][F,B,][F,C] [G,C][G,C] [G,B,]>[G,D] | %17
w: ||
 (z G,G,F, E,2) |] %18
w: |
V:4
 x2 | x8 | CC x6 | x8 | x2 G,2 G,2 x2 | x8 | CC x6 | x6 G,>G, | x6 || x2 | x8 | x8 | x8 | x8 | x8 | %15
w: ||~ ~||~ ~||~ ~|~ ~||||||||
 x8 | x8 | [C,C]6 |] %18
w: |||

